icon-themes/breeze_svg/cmd/32/distributecolumns.svg

<svg viewBox="0 0 32 32" xmlns="http://www.w3.org/2000/svg"><path d="m6 4v12 2 12h5v-1h-4v-4h4v-1h-4v-4h4v-1h-4v-4h4v-1h-4v-4h4v-1h-4v-4h4v-1zm7 0v12 2 12h6v-12h4v3l5-4-5-4v3h-4v-12zm1 1h4v4h-4zm0 5h4v4h-4zm0 5h4v4h-4zm0 5h4v4h-4zm0 5h4v4h-4z" fill="#4d4d4d"/></svg>

<svg xmlns="http://www.w3.org/2000/svg" viewBox="0 0 32 32">
 <path 
     style="fill:#4d4d4d" 
     d="M 6 4 L 6 16 L 6 18 L 6 30 L 11 30 L 11 29 L 7 29 L 7 25 L 11 25 L 11 24 L 7 24 L 7 20 L 11 20 L 11 19 L 7 19 L 7 15 L 11 15 L 11 14 L 7 14 L 7 10 L 11 10 L 11 9 L 7 9 L 7 5 L 11 5 L 11 4 L 6 4 z M 13 4 L 13 16 L 13 18 L 13 30 L 19 30 L 19 18 L 23 18 L 23 21 L 28 17 L 23 13 L 23 16 L 19 16 L 19 4 L 13 4 z M 14 5 L 18 5 L 18 9 L 14 9 L 14 5 z M 14 10 L 18 10 L 18 14 L 14 14 L 14 10 z M 14 15 L 18 15 L 18 19 L 14 19 L 14 15 z M 14 20 L 18 20 L 18 24 L 14 24 L 14 20 z M 14 25 L 18 25 L 18 29 L 14 29 L 14 25 z "
     />
</svg>
